app/assets/images/icons/active/tour.svg

<svg width="32" height="232" viewBox="0 0 32 232" xmlns="http://www.w3.org/2000/svg" xmlns:sketch="http://www.bohemiancoding.com/sketch/ns"><title>tour</title><g sketch:type="MSPage" fill="none"><path d="M16 189c-7.178 0-13-5.817-13-12.999 0-7.176 5.822-13.001 13-13.001s13 5.825 13 13.001c0 7.182-5.822 12.999-13 12.999zm0-21.742c-4.83 0-8.744 3.913-8.744 8.743s3.914 8.744 8.744 8.744c4.832 0 8.742-3.914 8.742-8.744s-3.91-8.743-8.742-8.743zm1.705 10.452l-7.475 4.061 4.055-7.479 7.221-3.807-3.801 7.225zm-2.682-2.313l-1.859 3.434 3.436-1.863-1.577-1.571zm0 0" fill="#16C98D" sketch:type="MSShapeGroup"/><path d="M16 149c-7.178 0-13-5.817-13-12.999 0-7.176 5.822-13.001 13-13.001s13 5.825 13 13.001c0 7.182-5.822 12.999-13 12.999zm0-21.742c-4.83 0-8.744 3.913-8.744 8.743s3.914 8.744 8.744 8.744c4.832 0 8.742-3.914 8.742-8.744s-3.91-8.743-8.742-8.743zm1.705 10.452l-7.475 4.061 4.055-7.479 7.221-3.807-3.801 7.225zm-2.682-2.313l-1.859 3.434 3.436-1.863-1.577-1.571zm0 0" fill="#206FAC" sketch:type="MSShapeGroup"/><path d="M16 109c-7.178 0-13-5.817-13-12.999 0-7.176 5.822-13.001 13-13.001s13 5.825 13 13.001c0 7.182-5.822 12.999-13 12.999zm0-21.742c-4.83 0-8.744 3.913-8.744 8.743s3.914 8.744 8.744 8.744c4.832 0 8.742-3.914 8.742-8.744s-3.91-8.743-8.742-8.743zm1.705 10.452l-7.475 4.061 4.055-7.479 7.221-3.807-3.801 7.225zm-2.682-2.313l-1.859 3.434 3.436-1.863-1.577-1.571zm0 0" fill="#fff" sketch:type="MSShapeGroup"/><path d="M16 69c-7.178 0-13-5.817-13-12.999 0-7.176 5.822-13.001 13-13.001s13 5.825 13 13.001c0 7.182-5.822 12.999-13 12.999zm0-21.742c-4.83 0-8.744 3.913-8.744 8.743s3.914 8.744 8.744 8.744c4.832 0 8.742-3.914 8.742-8.744s-3.91-8.743-8.742-8.743zm1.705 10.452l-7.475 4.061 4.055-7.479 7.221-3.807-3.801 7.225zm-2.682-2.313l-1.859 3.434 3.436-1.863-1.577-1.571zm0 0" fill="#67747C" sketch:type="MSShapeGroup"/><path d="M16 29c-7.178 0-13-5.817-13-12.999 0-7.176 5.822-13.001 13-13.001s13 5.825 13 13.001c0 7.182-5.822 12.999-13 12.999zm0-21.742c-4.83 0-8.744 3.913-8.744 8.743s3.914 8.744 8.744 8.744c4.832 0 8.742-3.914 8.742-8.744s-3.91-8.743-8.742-8.743zm1.705 10.452l-7.475 4.061 4.055-7.479 7.221-3.807-3.801 7.225zm-2.682-2.313l-1.859 3.434 3.436-1.863-1.577-1.571zm0 0" fill="#3B444F" sketch:type="MSShapeGroup"/></g></svg>

<?xml version="1.0" encoding="UTF-8" standalone="no"?>
<svg width="32px" height="232px" viewBox="0 0 32 232" version="1.1" xmlns="http://www.w3.org/2000/svg" xmlns:xlink="http://www.w3.org/1999/xlink" xmlns:sketch="http://www.bohemiancoding.com/sketch/ns">
    <title>tour</title>
    <description>Created with Sketch (http://www.bohemiancoding.com/sketch)</description>
    <defs></defs>
    <g id="Points-of-interest" stroke="none" stroke-width="1" fill="none" fill-rule="evenodd" sketch:type="MSPage">
        <path d="M16,189 C8.822,189 3,183.183 3,176.001 C3,168.825 8.822,163 16,163 C23.178,163 29,168.825 29,176.001 C29,183.183 23.178,189 16,189 L16,189 L16,189 L16,189 Z M16,167.258 C11.17,167.258 7.256,171.171 7.256,176.001 C7.256,180.831 11.17,184.745 16,184.745 C20.832,184.745 24.742,180.831 24.742,176.001 C24.742,171.171 20.832,167.258 16,167.258 L16,167.258 L16,167.258 L16,167.258 Z M17.705,177.71 L10.23,181.771 L14.285,174.292 L21.506,170.485 L17.705,177.71 L17.705,177.71 L17.705,177.71 L17.705,177.71 Z M15.023,175.397 L13.164,178.831 L16.6,176.968 L15.023,175.397 L15.023,175.397 Z M15.023,175.397" id="tour--green" fill="#16C98D" sketch:type="MSShapeGroup"></path>
        <path d="M16,149 C8.822,149 3,143.183 3,136.001 C3,128.825 8.822,123 16,123 C23.178,123 29,128.825 29,136.001 C29,143.183 23.178,149 16,149 L16,149 L16,149 L16,149 Z M16,127.258 C11.17,127.258 7.256,131.171 7.256,136.001 C7.256,140.831 11.17,144.745 16,144.745 C20.832,144.745 24.742,140.831 24.742,136.001 C24.742,131.171 20.832,127.258 16,127.258 L16,127.258 L16,127.258 L16,127.258 Z M17.705,137.71 L10.23,141.771 L14.285,134.292 L21.506,130.485 L17.705,137.71 L17.705,137.71 L17.705,137.71 L17.705,137.71 Z M15.023,135.397 L13.164,138.831 L16.6,136.968 L15.023,135.397 L15.023,135.397 Z M15.023,135.397" id="tour--lp-blue" fill="#206FAC" sketch:type="MSShapeGroup"></path>
        <path d="M16,109 C8.822,109 3,103.183 3,96.001 C3,88.825 8.822,83 16,83 C23.178,83 29,88.825 29,96.001 C29,103.183 23.178,109 16,109 L16,109 L16,109 L16,109 Z M16,87.258 C11.17,87.258 7.256,91.171 7.256,96.001 C7.256,100.831 11.17,104.745 16,104.745 C20.832,104.745 24.742,100.831 24.742,96.001 C24.742,91.171 20.832,87.258 16,87.258 L16,87.258 L16,87.258 L16,87.258 Z M17.705,97.71 L10.23,101.771 L14.285,94.292 L21.506,90.485 L17.705,97.71 L17.705,97.71 L17.705,97.71 L17.705,97.71 Z M15.023,95.397 L13.164,98.831 L16.6,96.968 L15.023,95.397 L15.023,95.397 Z M15.023,95.397" id="tour--white" fill="#FFFFFF" sketch:type="MSShapeGroup"></path>
        <path d="M16,69 C8.822,69 3,63.183 3,56.001 C3,48.825 8.822,43 16,43 C23.178,43 29,48.825 29,56.001 C29,63.183 23.178,69 16,69 L16,69 L16,69 L16,69 Z M16,47.258 C11.17,47.258 7.256,51.171 7.256,56.001 C7.256,60.831 11.17,64.745 16,64.745 C20.832,64.745 24.742,60.831 24.742,56.001 C24.742,51.171 20.832,47.258 16,47.258 L16,47.258 L16,47.258 L16,47.258 Z M17.705,57.71 L10.23,61.771 L14.285,54.292 L21.506,50.485 L17.705,57.71 L17.705,57.71 L17.705,57.71 L17.705,57.71 Z M15.023,55.397 L13.164,58.831 L16.6,56.968 L15.023,55.397 L15.023,55.397 Z M15.023,55.397" id="tour--body-grey" fill="#67747C" sketch:type="MSShapeGroup"></path>
        <path d="M16,29 C8.822,29 3,23.183 3,16.001 C3,8.825 8.822,3 16,3 C23.178,3 29,8.825 29,16.001 C29,23.183 23.178,29 16,29 L16,29 L16,29 L16,29 Z M16,7.258 C11.17,7.258 7.256,11.171 7.256,16.001 C7.256,20.831 11.17,24.745 16,24.745 C20.832,24.745 24.742,20.831 24.742,16.001 C24.742,11.171 20.832,7.258 16,7.258 L16,7.258 L16,7.258 L16,7.258 Z M17.705,17.71 L10.23,21.771 L14.285,14.292 L21.506,10.485 L17.705,17.71 L17.705,17.71 L17.705,17.71 L17.705,17.71 Z M15.023,15.397 L13.164,18.831 L16.6,16.968 L15.023,15.397 L15.023,15.397 Z M15.023,15.397" id="tour--title-grey" fill="#3B444F" sketch:type="MSShapeGroup"></path>
    </g>
</svg>
